vectors/drupal/drupal.svg

<svg version="1.1" xmlns="http://www.w3.org/2000/svg" xmlns:xlink="http://www.w3.org/1999/xlink" viewBox="0 0 256 295">
	<g fill="none">
		<path d="M84.790786,47.5711751 C33.3088872,69.4377588 0.909447471,112.319253 0.909447471,167.417027 C0.909447471,237.832965 57.993463,294.917977 128.412389,294.917977 C198.828327,294.917977 255.913339,237.832965 255.913339,167.417027 C255.913339,82.7537432 177.249619,49.097214 177.249619,49.097214 C177.249619,49.097214 160.067735,41.9620856 150.461261,35.5571051 C150.461261,35.5571051 138.323673,28.1400778 117.169307,0.832747082 C117.169307,0.832747082 117.648436,31.8585525 84.790786,47.5721712" fill="#136DA9" />
		<path d="M115.65323,270.238381 C111.174724,267.125541 112.239564,257.216249 124.37516,264.295595 C124.37516,264.295595 150.214226,283.273463 191.126412,260.504405 C194.306988,258.734319 198.205759,264.978926 188.092265,270.70456 C188.092265,270.70456 146.752747,291.855938 115.65323,270.238381 L115.65323,270.238381 Z" fill="#F0F0F0" />
		<path d="M115.65323,270.238381 C111.174724,267.125541 112.239564,257.216249 124.37516,264.295595 C124.37516,264.295595 150.214226,283.273463 191.126412,260.504405 C194.306988,258.734319 198.205759,264.978926 188.092265,270.70456 C188.092265,270.70456 146.752747,291.855938 115.65323,270.238381 L115.65323,270.238381 Z" stroke="#FFFDFF" />
		<path d="M168.370304,238.760342 C183.414537,240.522459 178.241743,247.756202 182.277977,248.871844 C190.493883,251.148949 186.954708,242.172016 186.954708,242.172016 C180.885416,230.03642 170.393401,230.795455 170.393401,230.795455 C153.958599,228.266335 141.695502,243.943097 141.695502,243.943097 C138.661354,250.64193 142.90677,250.986584 144.476638,250.264405 C152.440529,246.596732 157.285603,237.459424 168.370304,238.760342 L168.370304,238.760342 Z" fill="#F0F0F0" />
		<path d="M168.370304,238.760342 C183.414537,240.522459 178.241743,247.756202 182.277977,248.871844 C190.493883,251.148949 186.954708,242.172016 186.954708,242.172016 C180.885416,230.03642 170.393401,230.795455 170.393401,230.795455 C153.958599,228.266335 141.695502,243.943097 141.695502,243.943097 C138.661354,250.64193 142.90677,250.986584 144.476638,250.264405 C152.440529,246.596732 157.285603,237.459424 168.370304,238.760342 L168.370304,238.760342 Z" stroke="#FFFDFF" />
		<path d="M17.5972607,231.530584 C17.5972607,231.530584 63.3136809,269.353837 174.565105,185.089992 C174.565105,185.089992 230.443829,150.011019 228.760405,89.8659611 C228.760405,89.8659611 210.678039,63.8784747 180.166226,50.4768249 C175.825183,48.5692763 137.699113,27.7645447 117.108545,1.67545525 C117.108545,1.67545525 113.377121,77.3608093 16.438786,107.241089 C16.438786,107.241089 -7.98779767,143.269354 5.32818677,201.824623 C5.32818677,201.824623 13.8518911,225.565883 17.5972607,231.530584" fill="#008ECE" />
		<path d="M90.1149883,245.586677 C90.1149883,245.586677 52.1881401,246.596732 56.740358,206.141759 C56.740358,206.141759 64.6624125,160.629541 117.927346,170.744031 C117.927346,170.744031 129.559907,173.272156 151.303969,189.959969 C151.303969,189.959969 165.652918,201.021759 173.553058,200.813572 C173.553058,200.813572 179.685105,201.401276 192.433307,193.331798 C192.433307,193.331798 218.432747,173.269167 227.522241,173.863844 C227.748358,173.878786 245.866584,171.882584 245.866584,201.08551 C245.866584,201.08551 246.203268,233.281743 221.932078,244.068607 C221.932078,244.068607 215.526101,246.260047 208.614101,239.012358 C208.614101,239.012358 188.723798,216.424591 178.946988,212.716078 C178.946988,212.716078 173.301043,210.50372 165.799346,213.222101 C165.799346,213.222101 160.91144,213.728125 140.85379,227.044109 C140.85379,227.044109 107.139486,248.113805 90.1149883,245.586677 L90.1149883,245.586677 Z" fill="#F0F0F0" />
		<path d="M90.1149883,245.586677 C90.1149883,245.586677 52.1881401,246.596732 56.740358,206.141759 C56.740358,206.141759 64.6624125,160.629541 117.927346,170.744031 C117.927346,170.744031 129.559907,173.272156 151.303969,189.959969 C151.303969,189.959969 165.652918,201.021759 173.553058,200.813572 C173.553058,200.813572 179.685105,201.401276 192.433307,193.331798 C192.433307,193.331798 218.432747,173.269167 227.522241,173.863844 C227.748358,173.878786 245.866584,171.882584 245.866584,201.08551 C245.866584,201.08551 246.203268,233.281743 221.932078,244.068607 C221.932078,244.068607 215.526101,246.260047 208.614101,239.012358 C208.614101,239.012358 188.723798,216.424591 178.946988,212.716078 C178.946988,212.716078 173.301043,210.50372 165.799346,213.222101 C165.799346,213.222101 160.91144,213.728125 140.85379,227.044109 C140.85379,227.044109 107.139486,248.113805 90.1149883,245.586677 L90.1149883,245.586677 Z" stroke="#FFFDFF" />
		<path d="M110.173634,100.453603 C134.728716,65.2829883 117.108545,0.664404669 117.108545,0.664404669 C114.942008,35.7244514 85.3615564,47.2942568 85.3615564,47.2942568 C32.3984436,70.1539611 16.438786,106.229043 16.438786,106.229043 C27.7884514,122.324171 57.9187549,175.294257 110.173634,100.453603" fill="#008ECE" />
		<path d="M117.108545,0.664404669 C117.108545,0.664404669 120.287128,30.1631751 104.273681,39.7706459 C104.273681,39.7706459 78.5929961,51.7249494 70.7536187,55.643642 C70.7536187,55.643642 37.7754397,75.5488872 26.9049027,94.2578054 C26.9049027,94.2578054 3.64177432,125.38621 35.7543346,118.026957 C35.7543346,118.026957 93.8244981,101.632996 117.423315,52.160249 C117.423315,52.160249 118.812887,47.9885447 114.387175,43.6903346 C114.387175,43.6903346 132.088031,30.3315175 117.108545,0.664404669" fill="#A0D8F1" />
		<path d="M117.108545,0.664404669 C117.108545,0.664404669 118.43337,20.8077198 101.710693,37.4975253 C101.710693,37.4975253 96.6893074,44.5748794 70.7536187,55.643642 C70.7536187,55.643642 41.0635953,71.1231751 27.7525914,92.5923113 C27.7525914,92.5923113 8.02564981,116.388358 35.0759844,110.00828 C35.0759844,110.00828 89.8848872,89.8091829 109.968436,52.71807 C109.968436,52.71807 112.684825,48.8202957 108.549977,44.8039844 C108.549977,44.8039844 128.213167,29.4469728 117.108545,0.664404669" fill="#F0F0F0" />
	</g>
</svg>

<svg xmlns="http://www.w3.org/2000/svg" viewBox="0 0 256 295"><g fill="none"><path d="M84.79 47.571C33.31 69.438.91 112.32.91 167.417c0 70.416 57.083 127.501 127.502 127.501 70.416 0 127.501-57.085 127.501-127.501 0-84.663-78.663-118.32-78.663-118.32s-17.182-7.135-26.789-13.54c0 0-12.137-7.417-33.292-34.724 0 0 .48 31.026-32.378 46.74" fill="#136DA9"/><path d="M115.653 270.238c-4.478-3.112-3.413-13.022 8.722-5.942 0 0 25.84 18.977 66.751-3.792 3.181-1.77 7.08 4.475-3.034 10.2 0 0-41.34 21.152-72.439-.466z" fill="#F0F0F0"/><path d="M115.653 270.238c-4.478-3.112-3.413-13.022 8.722-5.942 0 0 25.84 18.977 66.751-3.792 3.181-1.77 7.08 4.475-3.034 10.2 0 0-41.34 21.152-72.439-.466h0z" stroke="#FFFDFF"/><path d="M168.37 238.76c15.045 1.762 9.872 8.996 13.908 10.112 8.216 2.277 4.677-6.7 4.677-6.7-6.07-12.136-16.562-11.377-16.562-11.377-16.434-2.529-28.697 13.148-28.697 13.148-3.035 6.699 1.21 7.044 2.78 6.321 7.965-3.667 12.81-12.805 23.894-11.504z" fill="#F0F0F0"/><path d="M168.37 238.76c15.045 1.762 9.872 8.996 13.908 10.112 8.216 2.277 4.677-6.7 4.677-6.7-6.07-12.136-16.562-11.377-16.562-11.377-16.434-2.529-28.697 13.148-28.697 13.148-3.035 6.699 1.21 7.044 2.78 6.321 7.965-3.667 12.81-12.805 23.894-11.504h0z" stroke="#FFFDFF"/><path d="M17.597 231.53s45.717 37.824 156.968-46.44c0 0 55.879-35.079 54.195-95.224 0 0-18.082-25.988-48.594-39.39-4.34-1.907-42.467-22.711-63.057-48.8 0 0-3.732 75.685-100.67 105.565 0 0-24.427 36.028-11.11 94.584 0 0 8.523 23.74 12.268 29.706" fill="#008ECE"/><path d="M90.115 245.587s-37.927 1.01-33.375-39.445c0 0 7.922-45.512 61.187-35.398 0 0 11.633 2.528 33.377 19.216 0 0 14.349 11.062 22.25 10.854 0 0 6.131.587 18.88-7.482 0 0 25.999-20.063 35.088-19.468.226.015 18.345-1.981 18.345 27.222 0 0 .336 32.196-23.935 42.983 0 0-6.406 2.191-13.318-5.057 0 0-19.89-22.587-29.667-26.296 0 0-5.646-2.212-13.148.506 0 0-4.888.506-24.945 13.822 0 0-33.715 21.07-50.739 18.543z" fill="#F0F0F0"/><path d="M90.115 245.587s-37.927 1.01-33.375-39.445c0 0 7.922-45.512 61.187-35.398 0 0 11.633 2.528 33.377 19.216 0 0 14.349 11.062 22.25 10.854 0 0 6.131.587 18.88-7.482 0 0 25.999-20.063 35.088-19.468.226.015 18.345-1.981 18.345 27.222 0 0 .336 32.196-23.935 42.983 0 0-6.406 2.191-13.318-5.057 0 0-19.89-22.587-29.667-26.296 0 0-5.646-2.212-13.148.506 0 0-4.888.506-24.945 13.822 0 0-33.715 21.07-50.739 18.543h0z" stroke="#FFFDFF"/><path d="M110.174 100.454c24.555-35.171 6.935-99.79 6.935-99.79-2.167 35.06-31.747 46.63-31.747 46.63-52.964 22.86-68.923 58.935-68.923 58.935 11.35 16.095 41.48 69.065 93.735-5.775" fill="#008ECE"/><path d="M117.109.664s3.178 29.5-12.835 39.107c0 0-25.681 11.954-33.52 15.873 0 0-32.979 19.905-43.85 38.614 0 0-23.262 31.128 8.85 23.769 0 0 58.07-16.394 81.67-65.867 0 0 1.389-4.171-3.037-8.47 0 0 17.701-13.358 2.722-43.026" fill="#A0D8F1"/><path d="M117.109.664s1.324 20.144-15.398 36.834c0 0-5.022 7.077-30.957 18.146 0 0-29.69 15.48-43.001 36.948 0 0-19.727 23.796 7.323 17.416 0 0 54.809-20.199 74.892-57.29 0 0 2.717-3.898-1.418-7.914 0 0 19.663-15.357 8.559-44.14" fill="#F0F0F0"/></g></svg>
